Numix/22/actions/view-right-close.svg

<?xml version="1.0" encoding="UTF-8" standalone="no"?>
<svg
   xmlns:dc="http://purl.org/dc/elements/1.1/"
   xmlns:cc="http://creativecommons.org/ns#"
   xmlns:rdf="http://www.w3.org/1999/02/22-rdf-syntax-ns#"
   xmlns:svg="http://www.w3.org/2000/svg"
   xmlns="http://www.w3.org/2000/svg"
   xmlns:sodipodi="http://sodipodi.sourceforge.net/DTD/sodipodi-0.dtd"
   xmlns:inkscape="http://www.inkscape.org/namespaces/inkscape"
   width="22"
   height="22"
   viewBox="0 0 22 22"
   id="svg2"
   version="1.1"
   inkscape:version="0.91 r13725"
   sodipodi:docname="view-right-close.svg">
  <metadata
     id="metadata22">
    <rdf:RDF>
      <cc:Work
         rdf:about="">
        <dc:format>image/svg+xml</dc:format>
        <dc:type
           rdf:resource="http://purl.org/dc/dcmitype/StillImage" />
        <dc:title></dc:title>
      </cc:Work>
    </rdf:RDF>
  </metadata>
  <defs
     id="defs20" />
  <sodipodi:namedview
     pagecolor="#ffffff"
     bordercolor="#666666"
     borderopacity="1"
     objecttolerance="10"
     gridtolerance="10"
     guidetolerance="10"
     inkscape:pageopacity="0"
     inkscape:pageshadow="2"
     inkscape:window-width="1366"
     inkscape:window-height="704"
     id="namedview18"
     showgrid="false"
     inkscape:zoom="20.687715"
     inkscape:cx="4.9430138"
     inkscape:cy="11"
     inkscape:window-x="0"
     inkscape:window-y="27"
     inkscape:window-maximized="1"
     inkscape:current-layer="svg2" />
  <path
     style="fill:#fff"
     d="M 3,1 C 0,1 0,3 0,3.964844 L 0,21 20,21 20,4 C 20,2.9998871 20,1 17,1 z"
     id="path4" />
  <path
     style="fill:#888"
     d="M 3 1 C 0 1 0 2.9999998 0 3.9648438 L 0 21 L 20 21 L 20 4 C 20 2.9998871 20 1 17 1 L 3 1 z M 3 2 L 17 2 C 19 2 19.06238 3.0019139 19 4 L 19 7 L 1 7 L 1 4 C 1 2.9996982 1 2 3 2 z M 1 8 L 7 8 L 7 20 L 1 20 L 1 8 z M 8 8 L 19 8 L 19 20 L 8 20 L 8 8 z "
     id="path6" />
  <path
     style="fill-opacity:.102"
     d="M 1,8 7,8 7,20 1,20 z"
     id="path8" />
  <g
     style="fill:#888;fill-opacity:.902"
     id="g10" />
  <path
     style="fill:#dc322f;fill-opacity:1"
     d="M 21.999708,19.171573 19.171281,16.343146 21.999708,13.514719 19.171281,10.686292 16.342854,13.514719 13.514427,10.686292 10.686,13.514719 13.514427,16.343146 10.686,19.171573 13.514427,22 16.342854,19.171573 19.171281,22 Z"
     id="path6-7"
     inkscape:connector-curvature="0" />
</svg>

<svg xmlns="http://www.w3.org/2000/svg" viewBox="0 0 22 22">
 <path d="m 3 1 c -3 0 -3 2 -3 2.965 l 0 17.04 20 0 0 -17 c 0 -1 0 -3 -3 -3 z" style="fill:#fff"/>
 <path d="m 3 1 c -3 0 -3 2 -3 2.965 l 0 17.04 l 20 0 l 0 -17 c 0 -1 0 -3 -3 -3 l -14 0 z m 0 1 l 14 0 c 2 0 2.062 1 2 2 l 0 3 l -18 0 l 0 -3 c 0 -1 0 -2 2 -2 z m -2 6 l 6 0 l 0 12 l -6 0 l 0 -12 z m 7 0 l 11 0 l 0 12 l -11 0 l 0 -12 z" style="fill:#888"/>
 <path d="m 1 8 6 0 0 12 -6 0 z" style="fill-opacity:0.102"/>
 <path d="m 22 19.17 -2.828 -2.828 2.828 -2.828 -2.828 -2.828 -2.828 2.828 -2.828 -2.828 -2.828 2.828 2.828 2.828 -2.828 2.828 2.828 2.828 2.828 -2.828 2.828 2.828" style="fill:#dc322f;fill-opacity:1"/>
</svg>
